static/icons/projects/bullseye.svg

<?xml version="1.0" encoding="UTF-8"?>
<svg width="76px" height="77px" viewBox="0 0 76 77" version="1.1" xmlns="http://www.w3.org/2000/svg" xmlns:xlink="http://www.w3.org/1999/xlink">
    <!-- Generator: Sketch 51 (57462) - http://www.bohemiancoding.com/sketch -->
    <title>Group 10</title>
    <desc>Created with Sketch.</desc>
    <defs>
        <polygon id="path-1" points="0.6222 0.0596 62.563 0.0596 62.563 61.9996 0.6222 61.9996"></polygon>
    </defs>
    <g id="Page-1" stroke="none" stroke-width="1" fill="none" fill-rule="evenodd">
        <g id="Group-10">
            <path d="M44.5932,32.8489 C37.4152,32.8489 31.5972,38.6679 31.5972,45.8459 C31.5972,53.0229 37.4152,58.8419 44.5932,58.8419 C51.7712,58.8419 57.5892,53.0229 57.5892,45.8459 C57.5892,38.6679 51.7712,32.8489 44.5932,32.8489 M44.5932,39.4859 C48.1002,39.4859 50.9532,42.3389 50.9532,45.8459 C50.9532,49.3519 48.1002,52.2049 44.5932,52.2049 C41.0862,52.2049 38.2332,49.3519 38.2332,45.8459 C38.2332,42.3389 41.0862,39.4859 44.5932,39.4859" id="Fill-1" fill="#000000"></path>
            <path d="M44.5932,46.9514 C44.3072,46.9514 44.0222,46.8414 43.8052,46.6214 L18.5932,21.0114 C18.1642,20.5764 18.1702,19.8754 18.6062,19.4474 C19.0412,19.0194 19.7402,19.0244 20.1692,19.4594 L45.3812,45.0694 C45.8102,45.5044 45.8042,46.2044 45.3692,46.6334 C45.1542,46.8454 44.8732,46.9514 44.5932,46.9514" id="Fill-3" fill="#000000"></path>
            <path d="M9.6225,19.0671 L18.2965,19.1231 L18.9405,9.6801 L14.5305,5.2711 L14.4135,14.0591 L5.0865,14.5311 L9.6225,19.0671 Z M20.3605,21.3481 L8.6995,21.2741 L0.0005,12.5741 L12.2295,11.9541 L12.3895,0.0001 L21.2165,8.8271 L20.3605,21.3481 Z" id="Fill-5" fill="#000000"></path>
            <g id="Group-9" transform="translate(13.000000, 14.815600)">
                <mask id="mask-2" fill="white">
                    <use xlink:href="#path-1"></use>
                </mask>
                <g id="Clip-8"></g>
                <path d="M31.5932,0.0596 C24.3282,0.0596 17.6542,2.5676 12.3712,6.7556 L17.4562,11.9206 C21.4102,8.9876 26.3022,7.2486 31.5932,7.2486 C44.7052,7.2486 55.3732,17.9166 55.3732,31.0296 C55.3732,44.1426 44.7052,54.8106 31.5932,54.8106 C18.4812,54.8106 7.8122,44.1426 7.8122,31.0296 C7.8122,24.0046 10.8762,17.6846 15.7362,13.3276 L10.6792,8.1906 C4.4992,13.8526 0.6222,21.9876 0.6222,31.0296 C0.6222,48.1346 14.4892,61.9996 31.5932,61.9996 C48.6972,61.9996 62.5632,48.1346 62.5632,31.0296 C62.5632,13.9256 48.6972,0.0596 31.5932,0.0596" id="Fill-7" fill="#000000" mask="url(#mask-2)"></path>
            </g>
        </g>
    </g>
</svg>

<svg xmlns="http://www.w3.org/2000/svg" viewBox="0 0 75.56 76.82"><title>Asset 6</title><g id="Layer_2" data-name="Layer 2"><g id="Layer_1-2" data-name="Layer 1"><path d="M44.59,39.49a6.36,6.36,0,1,1-6.36,6.36,6.36,6.36,0,0,1,6.36-6.36m0-6.64a13,13,0,1,0,13,13,13,13,0,0,0-13-13Z"/><path d="M44.59,47a1.12,1.12,0,0,1-.79-.33L18.59,21a1.11,1.11,0,0,1,1.58-1.55L45.38,45.07a1.1,1.1,0,0,1,0,1.56A1.09,1.09,0,0,1,44.59,47Z"/><path d="M20.36,21.35,8.7,21.27,0,12.57,12.23,12,12.39,0l8.83,8.83ZM9.62,19.07l8.68.05.64-9.44L14.53,5.27l-.12,8.79-9.32.47Z"/><path d="M44.59,14.88a30.81,30.81,0,0,0-19.22,6.69l5.09,5.17a23.79,23.79,0,1,1-1.72,1.4L23.68,23a31,31,0,1,0,20.91-8.13Z"/></g></g></svg>
